svgs/sharp-solid/code-compare.svg

<svg xmlns="http://www.w3.org/2000/svg" viewBox="0 0 512 512"><!--! Font Awesome Pro 6.6.0 by @fontawesome - https://fontawesome.com License - https://fontawesome.com/license (Commercial License) Copyright 2024 Fonticons, Inc. --><path d="M288 320l-96 96 96 96 32 0 0-64 16 0c70.7 0 128-57.3 128-128l0-160 48 0 0-56 0-48 0-56L456 0 408 0 352 0l0 56 0 48 0 56 48 0 0 160c0 35.3-28.7 64-64 64l-16 0 0-64-32 0zM408 56l48 0 0 48-48 0 0-48zM224 0L192 0l0 64-16 0C105.3 64 48 121.3 48 192l0 160L0 352l0 56 0 48 0 56 56 0 48 0 56 0 0-56 0-48 0-56-48 0 0-160c0-35.3 28.7-64 64-64l16 0 0 64 32 0 96-96L224 0zM56 408l48 0 0 48-48 0 0-48z"/></svg>

<svg xmlns="http://www.w3.org/2000/svg" viewBox="0 0 512 512"><!--! Font Awesome Pro 6.4.2 by @fontawesome - https://fontawesome.com License - https://fontawesome.com/license (Commercial License) Copyright 2023 Fonticons, Inc. --><path d="M288 320l-96 96 96 96h32V448h16c70.7 0 128-57.3 128-128V160h48V104 56 0H456 408 352V56v48 56h48V320c0 35.3-28.7 64-64 64H320V320H288zM408 56h48v48H408V56zM224 0H192V64H176C105.3 64 48 121.3 48 192V352H0v56 48 56H56h48 56V456 408 352H112V192c0-35.3 28.7-64 64-64h16v64h32l96-96L224 0zM56 408h48v48H56V408z"/></svg>
